X:12
T: Banks of the Devon, The
R: jig 16
M: 6/8
L: 1/8
K:Em
B,|E>FA B>Ad|A>DG F>ED|E>FA B>de|B>AF E2B,/B,/|
E>FA B>Ad|A>DG F>ED|E>FA B>de|B>AF E2 z|
e>Be g>fe|d>Ad F>ED|e>Be g>fe|B>ef e2 e|
e>Be g>fe|d>Ad F>ED|E>FA B>de|B>GF E2|]

